icons/salesforce.svg

<svg width="16" height="16" viewBox="0 0 16 16" fill="none" xmlns="http://www.w3.org/2000/svg">
<path d="M5 3C6.00004 3 6.8836 3.4909 7.42871 4.24316C7.75367 4.08864 8.11622 4 8.5 4C9.47438 4 10.316 4.55871 10.7285 5.37207C10.9891 5.30936 11.2612 5.27637 11.541 5.27637C13.4514 5.27644 15 6.82498 15 8.73535C14.9999 10.6456 13.4513 12.1943 11.541 12.1943C11.0934 12.1943 10.6661 12.1079 10.2734 11.9531C9.72326 12.5929 8.91003 13 8 13C7.55704 13 7.13764 12.9023 6.75977 12.7295C6.85744 12.6393 6.94945 12.5403 7.0332 12.4307C7.25389 12.1381 7.40174 11.7729 7.48145 11.3369L7.78516 9.40137H9.08008L9.30273 8.05371H8.00879L8.08105 7.62012C8.12314 7.40125 8.20461 7.23111 8.3252 7.11035C8.44878 6.98677 8.64211 6.9248 8.90332 6.9248C9.01241 6.92485 9.11593 6.93455 9.21387 6.9541C9.31213 6.97376 9.3955 6.99512 9.46289 7.01758L9.99805 5.66895C9.89699 5.63527 9.73413 5.59677 9.50977 5.55469C9.28799 5.51258 9.03875 5.49221 8.76367 5.49219C8.35947 5.49222 7.98286 5.56931 7.63477 5.72363C7.28937 5.87809 6.9986 6.11007 6.7627 6.41895C6.5296 6.72787 6.37467 7.11695 6.29883 7.58594L6.2207 8.05371H5.30859L5.08496 9.40137H5.99414L5.70215 11.2715C5.65797 11.4698 5.58235 11.6265 5.46973 11.7393C5.34623 11.8628 5.15349 11.9247 4.89258 11.9248C4.78305 11.9248 4.67837 11.9142 4.58008 11.8945C4.48189 11.8749 4.3984 11.8545 4.33105 11.832L3.87891 12.9697C3.75532 12.9886 3.62895 13 3.5 13C2.11929 13 1 11.8807 1 10.5C1 9.34481 1.78405 8.37467 2.84863 8.08789C2.32429 7.54771 2 6.81227 2 6C2 4.34315 3.34315 3 5 3Z" fill="#4CA3E1"/>
</svg>

<svg xmlns="http://www.w3.org/2000/svg" width="16" height="16" fill="none" viewBox="0 0 16 16"><path fill="#4CA3E1" d="M5 3c1 0 1.884.49 2.429 1.243a2.497 2.497 0 0 1 3.3 1.129 3.459 3.459 0 1 1-.455 6.581 2.99 2.99 0 0 1-3.514.777q.147-.135.273-.3.33-.438.448-1.093L7.785 9.4H9.08l.223-1.347H8.009l.072-.434a.96.96 0 0 1 .244-.51q.186-.185.578-.185.165 0 .31.03.15.029.25.063l.535-1.349a4 4 0 0 0-.488-.114 4 4 0 0 0-.746-.063q-.607 0-1.13.232a2.2 2.2 0 0 0-.871.695q-.35.463-.464 1.167l-.078.468h-.912L5.085 9.4h.91l-.293 1.87a.93.93 0 0 1-.232.468q-.186.186-.577.186-.165 0-.313-.03a2 2 0 0 1-.249-.063L3.88 12.97q-.187.03-.38.03a2.5 2.5 0 0 1-.651-4.912A3 3 0 0 1 5 3"/></svg>
